X:279
T:Polygon,The. RH279
R:jig
S:Rev.R.Harrison’s MS,c1815,Cumbria
O:England
A:Temple Sowerby,Cumbria
Z:vmp.Simon Wilson. Review PJH, 2008.
M:6/8
L:1/8
Q:3/8=120
K:D
(f/g/)|afd ecA|dBG {G}F2E|\
DFA Ggf|efd {d}c2(f/g/)|!
afd ecA|dBG F2E|DFA Bgf|edc d2:|!
|:Ace gec|Ace afd|Ace gec|Bed c3|!
Ace gec|Adf afd|AcA Bgf|edc d3:|

